X: 2269
T: Baby Matthew's
R: jig
M: 6/8
K: Bminor
|:BAF Bce|fgf ecA|efe edg|fdc ~B2F|
BAF Bce|fgf ecA|fgf edc|BcA B3:|
|:efe edg|fdc Bcd|efe efg|fde ~f3|
e2e efg|fdc Bce|fgf edc|BcA B3:|

